X:1
T:Fille Pastorale. TWC.253, La
T:Fille Pastorale. TWC.253, La
T:French
C:French
L:1/8
Q:1/4=100
M:6/8
K:G
V:1 treble 
V:1
 G2 G AGA | B3 G3 | E2 E A3 | GFE DEF | G2 G{B} AGA | B3 G3 | E2 E EFD | G3 G3!fine! || GAB E2 E | %9
 ABc F2 F | GAB cde |{B} A3 A2 d | BGe ^cAf | ged ^cBA | agf ed^c | d3 d3!D.C.! || %16
[K:Gmin] g2 d d2 c | Bcd d2 c | BAG dcB | A2 D D2 d | g2 d d2 c | Bcd d2 c | BAG D=E^F | %23
 G2 G G2!D.C.! |] %24

